Numix-GalliumOS/32/actions/package-purge.svg

<?xml version="1.0" encoding="UTF-8" standalone="no"?>
<svg
   xmlns:dc="http://purl.org/dc/elements/1.1/"
   xmlns:cc="http://creativecommons.org/ns#"
   xmlns:rdf="http://www.w3.org/1999/02/22-rdf-syntax-ns#"
   xmlns:svg="http://www.w3.org/2000/svg"
   xmlns="http://www.w3.org/2000/svg"
   xmlns:sodipodi="http://sodipodi.sourceforge.net/DTD/sodipodi-0.dtd"
   xmlns:inkscape="http://www.inkscape.org/namespaces/inkscape"
   width="32"
   height="32"
   viewBox="0 0 32 32"
   id="svg2"
   version="1.1"
   inkscape:version="0.91 r13725"
   sodipodi:docname="package-purge.svg">
  <metadata
     id="metadata18">
    <rdf:RDF>
      <cc:Work
         rdf:about="">
        <dc:format>image/svg+xml</dc:format>
        <dc:type
           rdf:resource="http://purl.org/dc/dcmitype/StillImage" />
        <dc:title />
      </cc:Work>
    </rdf:RDF>
  </metadata>
  <defs
     id="defs16" />
  <sodipodi:namedview
     pagecolor="#ffffff"
     bordercolor="#666666"
     borderopacity="1"
     objecttolerance="10"
     gridtolerance="10"
     guidetolerance="10"
     inkscape:pageopacity="0"
     inkscape:pageshadow="2"
     inkscape:window-width="1366"
     inkscape:window-height="704"
     id="namedview14"
     showgrid="true"
     inkscape:zoom="20.85965"
     inkscape:cx="16.240976"
     inkscape:cy="8.204036"
     inkscape:window-x="0"
     inkscape:window-y="27"
     inkscape:window-maximized="1"
     inkscape:current-layer="svg2">
    <inkscape:grid
       type="xygrid"
       id="grid3010" />
  </sodipodi:namedview>
  <path
     style="fill:#c19553"
     d="M 2 0 C 1.128906 0 0 1.128906 0 2 L 0 28 C 0 28.824219 1.175781 30 2 30 L 28 30 C 28.824219 30 30 28.824219 30 28 L 30 2 C 30 1.175781 28.824219 0 28 0 Z "
     id="path4" />
  <g
     style="fill:#fff"
     id="g6">
    <path
       style="fill-opacity:.196"
       d="M 2 0 C 1.128906 0 0 1.128906 0 2 L 0 10 C 3.386719 10 26.613281 10 30 10 L 30 2 C 30 1.175781 28.824219 0 28 0 Z "
       id="path8" />
    <path
       style="fill-opacity:.392"
       d="M 12 4 L 12 16 L 18 16 L 18 4 Z "
       id="path10" />
  </g>
  <g
     style="fill-rule:evenodd"
     id="g4"
     transform="matrix(0.50000001,0,0,0.50000001,16,16)">
    <path
       inkscape:connector-curvature="0"
       style="fill:#dc322f"
       d="M 32,16.003906 C 32,24.839844 24.835938,32 16,32 7.164062,32 0,24.839844 0,16.003906 0,7.164062 7.164062,0 16,0 24.835938,0 32,7.164062 32,16.003906 Z"
       id="path6" />
    <path
       inkscape:connector-curvature="0"
       style="fill:#ffffff;fill-opacity:0.9020004"
       d="m 8.007812,8 0,2.667969 c -0.058593,0.746093 0.191407,1.511719 0.753907,2.027343 l 3.417969,3.363282 -3.417969,3.363281 c -0.5,0.5 -0.753907,1.207031 -0.753907,1.910156 l 0,2.667969 2.664063,0 c 0.707031,0 1.414063,-0.253906 1.914063,-0.753906 l 3.417968,-3.417969 3.417969,3.417969 c 0.5,0.5 1.207031,0.753906 1.914063,0.753906 L 24,24 24,21.332031 c 0,-0.703125 -0.253906,-1.410156 -0.753906,-1.910156 l -3.359375,-3.363281 3.417969,-3.363282 C 23.878906,12.164062 24,11.429688 24,10.667969 L 24,8 21.335938,8 C 20.695312,8.019531 20.1875,8.257812 19.480469,8.871094 L 16.003906,12.230469 12.585938,8.871094 C 12.113281,8.378906 11.46875,8.03125 10.789062,8 c -0.02734,0 -0.08984,0 -0.117187,0 z"
       id="path8-0" />
  </g>
</svg>

<svg xmlns="http://www.w3.org/2000/svg" viewBox="0 0 32 32">
 <path d="m 2 0 c -0.871 0 -2 1.129 -2 2 l 0 26 c 0 0.824 1.176 2 2 2 l 26 0 c 0.824 0 2 -1.176 2 -2 l 0 -26 c 0 -0.824 -1.176 -2 -2 -2 Z" style="fill:#c19553"/>
 <g style="fill:#fff">
  <path d="m 2 0 c -0.871 0 -2 1.129 -2 2 l 0 8 c 3.387 0 26.613 0 30 0 l 0 -8 c 0 -0.824 -1.176 -2 -2 -2 Z" style="fill-opacity:0.196"/>
  <path d="m 12 4 l 0 12 l 6 0 l 0 -12 Z" style="fill-opacity:0.392"/>
 </g>
 <g transform="matrix(0.50000001,0,0,0.50000001,16,16)" style="fill-rule:evenodd">
  <path d="m 32 16 c 0 8.836 -7.164 15.996 -16 15.996 -8.836 0 -16 -7.16 -16 -15.996 0 -8.84 7.164 -16 16 -16 8.836 0 16 7.164 16 16" style="fill:#dc322f"/>
  <path d="m 8.01 8 0 2.668 c -0.059 0.746 0.191 1.512 0.754 2.027 l 3.418 3.363 -3.418 3.363 c -0.5 0.5 -0.754 1.207 -0.754 1.91 l 0 2.668 2.664 0 c 0.707 0 1.414 -0.254 1.914 -0.754 l 3.418 -3.418 3.418 3.418 c 0.5 0.5 1.207 0.754 1.914 0.754 l 2.664 0 0 -2.668 c 0 -0.703 -0.254 -1.41 -0.754 -1.91 l -3.359 -3.363 3.418 -3.363 c 0.574 -0.531 0.695 -1.266 0.695 -2.027 l 0 -2.668 -2.664 0 c -0.641 0.02 -1.148 0.258 -1.855 0.871 l -3.477 3.359 -3.418 -3.359 c -0.473 -0.492 -1.117 -0.84 -1.797 -0.871 c -0.027 0 -0.09 0 -0.117 0 z" style="fill:#fff;fill-opacity:0.902"/>
 </g>
</svg>
